Sweet-Rainbow/icons/fritzing.svg

<?xml version="1.0" encoding="UTF-8" standalone="no"?>
<!-- Generator: Gravit.io -->

<svg
   xmlns:dc="http://purl.org/dc/elements/1.1/"
   xmlns:cc="http://creativecommons.org/ns#"
   xmlns:rdf="http://www.w3.org/1999/02/22-rdf-syntax-ns#"
   xmlns:svg="http://www.w3.org/2000/svg"
   xmlns="http://www.w3.org/2000/svg"
   xmlns:sodipodi="http://sodipodi.sourceforge.net/DTD/sodipodi-0.dtd"
   xmlns:inkscape="http://www.inkscape.org/namespaces/inkscape"
   style="isolation:isolate"
   viewBox="0 0 36 36"
   width="48"
   height="48"
   version="1.1"
   id="svg9"
   sodipodi:docname="fritzing.svg"
   inkscape:version="0.92.4 (5da689c313, 2019-01-14)">
  <metadata
     id="metadata15">
    <rdf:RDF>
      <cc:Work
         rdf:about="">
        <dc:format>image/svg+xml</dc:format>
        <dc:type
           rdf:resource="http://purl.org/dc/dcmitype/StillImage" />
        <dc:title></dc:title>
      </cc:Work>
    </rdf:RDF>
  </metadata>
  <defs
     id="defs13" />
  <sodipodi:namedview
     pagecolor="#ffffff"
     bordercolor="#666666"
     borderopacity="1"
     objecttolerance="10"
     gridtolerance="10"
     guidetolerance="10"
     inkscape:pageopacity="0"
     inkscape:pageshadow="2"
     inkscape:window-width="640"
     inkscape:window-height="480"
     id="namedview11"
     showgrid="false"
     inkscape:zoom="29.365243"
     inkscape:cx="25.325443"
     inkscape:cy="32"
     inkscape:current-layer="svg9"
     units="px" />
  <linearGradient
     id="_lgradient_25"
     x1="0"
     y1="0.5"
     x2="1"
     y2="0.5"
     gradientTransform="matrix(46,0,0,46,1,1)"
     gradientUnits="userSpaceOnUse">
    <stop
       offset="0%"
       stop-opacity="1"
       style="stop-color:rgb(255,224,49)"
       id="stop2" />
    <stop
       offset="98.69565217391305%"
       stop-opacity="1"
       style="stop-color:rgb(252,82,82)"
       id="stop4" />
  </linearGradient>
  <g
     id="g826"
     transform="matrix(0.78260833,0,0,0.78260833,-0.78260842,-0.78259992)">
    <path
       id="path7"
       d="m 20.5,33.333 c 0,-0.412 0.163,-0.809 0.459,-1.096 0.288,-0.296 0.684,-0.459 1.097,-0.459 v 0 c 0.412,0 0.808,0.163 1.096,0.459 0.296,0.287 0.459,0.684 0.459,1.096 0,0.413 -0.163,0.809 -0.459,1.097 -0.288,0.296 -0.684,0.459 -1.096,0.459 -0.413,0 -0.809,-0.163 -1.097,-0.459 C 20.663,34.142 20.5,33.746 20.5,33.333 Z M 42.818,22.599 v 0 c 0.086,1.148 1.092,2.013 2.245,1.929 v 0 c 1.152,-0.084 2.018,-1.089 1.931,-2.243 v 0 C 46.565,16.504 43.958,11.089 39.698,7.137 35.438,3.195 29.838,1 24.028,1 17.926,1 12.064,3.425 7.741,7.733 3.428,12.05 1,17.905 1,24 1,30.095 3.428,35.95 7.741,40.267 12.064,44.575 17.926,47 24.028,47 v 0 c 1.156,0 2.094,-0.937 2.094,-2.091 v 0 c 0,-1.154 -0.938,-2.091 -2.094,-2.091 v 0 c -4.993,0 -9.787,-1.986 -13.325,-5.509 C 7.176,33.775 5.187,28.987 5.187,24 c 0,-4.987 1.989,-9.775 5.516,-13.309 3.538,-3.523 8.332,-5.509 13.325,-5.509 4.753,0 9.337,1.788 12.823,5.018 3.486,3.23 5.611,7.663 5.967,12.399 z M 20.5,28.933 v -7.266 h -2.434 c -0.803,0 -1.455,-0.652 -1.455,-1.455 v -0.201 c 0,-0.803 0.652,-1.455 1.455,-1.455 H 20.5 V 15.444 C 20.5,12.44 22.94,10 25.944,10 h 3.889 v 0 c 0.859,0 1.556,0.697 1.556,1.556 v 0 c 0,0.858 -0.697,1.555 -1.556,1.555 v 0 h -3.111 c -1.717,0 -3.111,1.394 -3.111,3.111 v 2.334 h 2.434 c 0.803,0 1.455,0.652 1.455,1.455 v 0.201 c 0,0.803 -0.652,1.455 -1.455,1.455 h -2.434 v 7.266 c 0.65,0.23 1.248,0.604 1.742,1.103 0.879,0.871 1.369,2.061 1.369,3.297 0,1.237 -0.49,2.427 -1.369,3.298 C 24.482,37.51 23.292,38 22.056,38 20.819,38 19.629,37.51 18.758,36.631 17.879,35.76 17.389,34.57 17.389,33.333 v 0 c 0,-1.236 0.49,-2.426 1.369,-3.297 0.494,-0.499 1.092,-0.873 1.742,-1.103 z m 12.29,11.732 v 0 c -1.023,0.536 -1.417,1.801 -0.88,2.822 v 0 c 0.538,1.022 1.804,1.415 2.827,0.878 v 0 c 4.354,-2.289 7.871,-5.917 10.017,-10.339 v 0 c 0.508,-1.039 0.077,-2.292 -0.963,-2.797 v 0 c -1.04,-0.505 -2.297,-0.071 -2.805,0.967 v 0 c -1.759,3.628 -4.627,6.587 -8.196,8.469 z"
       style="fill:url(#_lgradient_25);fill-rule:evenodd"
       inkscape:connector-curvature="0" />
  </g>
</svg>

<?xml version="1.0" encoding="UTF-8" standalone="no"?><!-- Generator: Gravit.io --><svg xmlns="http://www.w3.org/2000/svg" xmlns:xlink="http://www.w3.org/1999/xlink" style="isolation:isolate" viewBox="0 0 48 48" width="48pt" height="48pt"><linearGradient id="_lgradient_25" x1="0" y1="0.5" x2="1" y2="0.5" gradientTransform="matrix(46,0,0,46,1,1)" gradientUnits="userSpaceOnUse"><stop offset="0%" stop-opacity="1" style="stop-color:rgb(255,224,49)"/><stop offset="98.69565217391305%" stop-opacity="1" style="stop-color:rgb(252,82,82)"/></linearGradient><path d=" M 20.5 33.333 C 20.5 32.921 20.663 32.524 20.959 32.237 C 21.247 31.941 21.643 31.778 22.056 31.778 L 22.056 31.778 C 22.468 31.778 22.864 31.941 23.152 32.237 C 23.448 32.524 23.611 32.921 23.611 33.333 C 23.611 33.746 23.448 34.142 23.152 34.43 C 22.864 34.726 22.468 34.889 22.056 34.889 C 21.643 34.889 21.247 34.726 20.959 34.43 C 20.663 34.142 20.5 33.746 20.5 33.333 L 20.5 33.333 L 20.5 33.333 L 20.5 33.333 Z  M 42.818 22.599 L 42.818 22.599 C 42.904 23.747 43.91 24.612 45.063 24.528 L 45.063 24.528 C 46.215 24.444 47.081 23.439 46.994 22.285 L 46.994 22.285 C 46.565 16.504 43.958 11.089 39.698 7.137 C 35.438 3.195 29.838 1 24.028 1 C 17.926 1 12.064 3.425 7.741 7.733 C 3.428 12.05 1 17.905 1 24 C 1 30.095 3.428 35.95 7.741 40.267 C 12.064 44.575 17.926 47 24.028 47 L 24.028 47 C 25.184 47 26.122 46.063 26.122 44.909 L 26.122 44.909 C 26.122 43.755 25.184 42.818 24.028 42.818 L 24.028 42.818 C 19.035 42.818 14.241 40.832 10.703 37.309 C 7.176 33.775 5.187 28.987 5.187 24 C 5.187 19.013 7.176 14.225 10.703 10.691 C 14.241 7.168 19.035 5.182 24.028 5.182 C 28.781 5.182 33.365 6.97 36.851 10.2 C 40.337 13.43 42.462 17.863 42.818 22.599 L 42.818 22.599 Z  M 20.5 28.933 L 20.5 21.667 L 18.066 21.667 C 17.263 21.667 16.611 21.015 16.611 20.212 L 16.611 20.011 C 16.611 19.208 17.263 18.556 18.066 18.556 L 20.5 18.556 L 20.5 15.444 C 20.5 12.44 22.94 10 25.944 10 L 29.833 10 L 29.833 10 C 30.692 10 31.389 10.697 31.389 11.556 L 31.389 11.556 C 31.389 12.414 30.692 13.111 29.833 13.111 L 29.833 13.111 L 26.722 13.111 C 25.005 13.111 23.611 14.505 23.611 16.222 L 23.611 18.556 L 26.045 18.556 C 26.848 18.556 27.5 19.208 27.5 20.011 L 27.5 20.212 C 27.5 21.015 26.848 21.667 26.045 21.667 L 23.611 21.667 L 23.611 28.933 C 24.261 29.163 24.859 29.537 25.353 30.036 C 26.232 30.907 26.722 32.097 26.722 33.333 C 26.722 34.57 26.232 35.76 25.353 36.631 C 24.482 37.51 23.292 38 22.056 38 C 20.819 38 19.629 37.51 18.758 36.631 C 17.879 35.76 17.389 34.57 17.389 33.333 L 17.389 33.333 C 17.389 32.097 17.879 30.907 18.758 30.036 C 19.252 29.537 19.85 29.163 20.5 28.933 L 20.5 28.933 L 20.5 28.933 Z  M 32.79 40.665 L 32.79 40.665 C 31.767 41.201 31.373 42.466 31.91 43.487 L 31.91 43.487 C 32.448 44.509 33.714 44.902 34.737 44.365 L 34.737 44.365 C 39.091 42.076 42.608 38.448 44.754 34.026 L 44.754 34.026 C 45.262 32.987 44.831 31.734 43.791 31.229 L 43.791 31.229 C 42.751 30.724 41.494 31.158 40.986 32.196 L 40.986 32.196 C 39.227 35.824 36.359 38.783 32.79 40.665 Z " fill-rule="evenodd" fill="url(#_lgradient_25)"/></svg>
